X:1
T: The Fardown Farmer
C:
R:Jig
Q:180
K:G
M:6/8
L:1/16
A2|B2A2B2 G2E2D2|E2F2G2 G2A2B2|B2A2B2 G2E2D2|E2A2A2 A2B2c2|B2A2B2 G2E2D2|E2F2G2 G2A2B2|d2f2e2 d2c2A2|B2G2G2 A4A2|
B2A2B2 G2E2D2|E2F2G2 G2A2B2|B2A2B2 G2E2D2|E2A2A2 A2B2c2|B2A2B2 G2E2D2|E2F2G2 G2A2B2|d2f2e2 d2c2A2|B2G2G2 A4A2|
B2c2d2 d2e2d2|d2g2e2 d2B2G2|B2c2d2 d2e2d2|e2f2d2 g4d2|B2c2d2 d2e2d2|d2g2e2 d2B2G2|d2f2e2 d2c2A2|B2G2G2 G4A2|
B2c2d2 d2e2d2|d2g2e2 d2B2G2|B2c2d2 d2e2d2|e2f2d2 g4d2|B2c2d2 d2e2d2|d2g2e2 d2B2G2|d2f2e2 d2c2A2|B2G2G2 G4||
